src/img/dot5.svg

<svg height="15" viewBox="0 0 15 15" width="15" xmlns="http://www.w3.org/2000/svg"><path d="m571.571572 29.4087449c-3.254502-.4322252-6.26866-3.2648441-5.429424-6.7458009 1.000779-3.0873231 3.431806-4.966731 5.307282-7.0622515.54184-.3249257 1.152339-.5242457 1.784854-.5827323 1.29048-.1050049 2.575939.2529626 3.61699 1.0072392.523935.3721027.969462.8399299 1.312045 1.3777179 2.391626 3.5349849 4.960555 9.6903353 0 12.1177431-1.462681.5744641-3.083463.6344725-4.586248.1698027-.610712-.0578873-1.213543-.1543661-2.005499-.2817182z" fill="#699db7" transform="translate(-566 -15)"/></svg>

<?xml version="1.0" encoding="UTF-8"?>
<svg width="15px" height="15px" viewBox="0 0 15 15" version="1.1" xmlns="http://www.w3.org/2000/svg" xmlns:xlink="http://www.w3.org/1999/xlink">
    <!-- Generator: Sketch 49.2 (51160) - http://www.bohemiancoding.com/sketch -->
    <title>puce5</title>
    <desc>Created with Sketch.</desc>
    <defs></defs>
    <g id="Page-1" stroke="none" stroke-width="1" fill="none" fill-rule="evenodd">
        <g id="1-HOMEPAGE" transform="translate(-1291.000000, -5729.000000)" fill="#699DB7" fill-rule="nonzero">
            <g id="Page-1" transform="translate(0.000000, 5049.000000)">
                <g id="Group-14">
                    <g id="footer" transform="translate(725.000000, 665.000000)">
                        <path d="M571.571572,29.4087449 C568.31707,28.9765197 565.302912,26.1439008 566.142148,22.662944 C567.142927,19.5756209 569.573954,17.696213 571.44943,15.6006925 C571.99127,15.2757668 572.601769,15.0764468 573.234284,15.0179602 C574.524764,14.9129553 575.810223,15.2709228 576.851274,16.0251994 C577.375209,16.3973021 577.820736,16.8651293 578.163319,17.4029173 C580.554945,20.9379022 583.123874,27.0932526 578.163319,29.5206604 C576.700638,30.0951245 575.079856,30.1551329 573.577071,29.6904631 C572.966359,29.6325758 572.363528,29.536097 571.571572,29.4087449 Z" id="puce5"></path>
                    </g>
                </g>
            </g>
        </g>
    </g>
</svg>
